api/illustrations/ManyPixels Logo.svg

<svg width="155" height="26" viewBox="0 0 155 26" fill="none" xmlns="http://www.w3.org/2000/svg">
<g clip-path="url(#clip0)">
<path d="M95.333 0.270447H100.769V4.93758H95.333V0.270447Z" fill="#4490CD"/>
<path d="M102.859 16.2031H108.295V20.8756H102.859V16.2031Z" fill="#4490CD"/>
<path d="M41.9482 12.6818V20.8378H36.8901V19.8464C35.8777 20.7085 34.5851 21.1744 33.2535 21.1574C30.2176 21.1574 27.8667 19.3371 27.8667 16.7422C27.8667 14.0335 30.4895 12.1373 33.9087 12.1373C34.9348 12.1551 35.9489 12.3636 36.8983 12.7522V12.6818C36.8983 11.4792 35.8301 10.7857 33.9984 10.7857C32.8323 10.7791 31.6809 11.0444 30.6363 11.5604L28.9675 8.32349C30.9351 7.35918 33.0444 6.69824 35.4198 6.69824C38.9937 6.67929 41.9482 8.8896 41.9482 12.6818ZM36.8901 15.7779C36.192 15.4386 35.4244 15.2652 34.6479 15.2713C33.6368 15.2713 32.8704 15.832 32.8704 16.6095C32.8704 17.33 33.5797 17.8392 34.5392 17.8392C36.8358 17.8284 36.8901 15.7779 36.8901 15.7779Z" fill="white"/>
<path d="M58.5707 12.029V20.8297H53.5425V13.2236C53.5425 11.8855 52.6673 10.9483 51.4091 10.9483C50.2348 10.9483 49.3868 11.8313 49.3868 13.0638V20.8297H44.1061V6.68742H49.3841V8.39122C50.2593 7.32129 51.6807 6.67932 53.3767 6.67932C56.4098 6.67932 58.5707 8.88963 58.5707 12.029Z" fill="white"/>
<path d="M60.3672 24.6352L61.4243 21.2547C62.2179 21.7179 63.0387 22.0457 63.422 22.0457C63.7336 22.0469 64.0414 21.9762 64.3211 21.8389C64.6006 21.7017 64.8448 21.5017 65.0337 21.2547L65.1153 21.0651L59.4077 6.78473H64.7945L67.6919 15.477L70.4259 6.78473H75.7314L70.3933 20.9838C69.2465 24.0068 67.1672 25.7783 64.7619 25.7783C63.2263 25.7536 61.719 25.3616 60.3672 24.6352Z" fill="white"/>
<path d="M95.3982 6.74146H100.671V20.8268H95.3982V6.74146Z" fill="white"/>
<path d="M112.456 20.8294L102.693 6.74408H108.273L110.295 9.65867L112.32 6.74408H117.755L113.002 13.5538L118.035 20.8294H112.456Z" fill="white"/>
<path d="M128.682 16.203L131.505 19.0471C130.28 20.2958 127.934 21.1707 125.828 21.1707C121.43 21.1707 118.217 18.1695 118.217 13.9439C118.217 9.71827 121.362 6.79828 125.629 6.79828C130.054 6.79828 132.799 9.90517 132.799 15.1953H123.042C123.39 16.4982 124.322 17.3623 125.629 17.3623C126.747 17.3205 127.819 16.913 128.682 16.203ZM123.12 12.4974H127.866C127.545 11.3543 126.746 10.6013 125.626 10.6013C124.387 10.6094 123.509 11.3543 123.12 12.4974Z" fill="white"/>
<path d="M134.824 0.221619H140.102V20.8296H134.824V0.221619Z" fill="white"/>
<path d="M142.146 19.0852L144.065 15.9756C145.399 16.9074 147.373 17.6009 148.837 17.6009C149.797 17.6009 150.145 17.3625 150.145 16.9101C150.145 16.4578 149.346 16.1653 148.066 15.8998C145.56 15.358 142.76 14.7567 142.76 11.5171C142.76 8.85982 144.918 6.78766 148.519 6.78766C150.573 6.82512 152.572 7.45246 154.276 8.59436L152.544 11.7284C151.398 10.9835 149.827 10.2684 148.519 10.2684C147.799 10.2684 147.318 10.6394 147.318 11.0376C147.318 11.49 147.932 11.5794 149.318 11.8882C151.824 12.4462 154.703 13.2696 154.703 16.512C154.703 19.3534 152.436 21.1601 148.704 21.1601C146.302 21.1574 143.823 20.3881 142.146 19.0852Z" fill="white"/>
<path d="M18.7535 6.78485C13.8423 6.78485 13.5297 9.07642 13.5297 9.09809C13.5297 9.06829 12.5866 6.78485 8.40646 6.78485C5.79184 6.78485 5.27 7.81957 5.27815 7.82501V6.68463H0V20.8079H5.27815C5.27815 20.8079 5.27815 12.828 5.27815 12.9038C5.27815 11.3707 6.65884 10.5879 7.94168 10.5879C9.26802 10.5879 10.5726 11.4736 10.5726 12.8199C10.5998 12.8822 10.5237 20.8079 10.5237 20.8079H15.6605C15.6605 20.8079 15.723 13.405 15.723 13.2451C15.7114 12.8952 15.7702 12.5464 15.8961 12.2195C16.0219 11.8926 16.2121 11.5941 16.4555 11.3416C16.699 11.0891 16.9907 10.8878 17.3135 10.7495C17.6363 10.6112 17.9836 10.5388 18.3349 10.5364C19.0558 10.5364 19.7471 10.8218 20.2568 11.3298C20.7665 11.8378 21.0528 12.5267 21.0528 13.2451C21.0528 13.405 21.0121 20.8079 21.0121 20.8079H26.0429V12.0939C26.0429 8.98705 23.1429 6.78485 18.7535 6.78485Z" fill="white"/>
<path d="M93.5826 13.8763C93.5826 18.3944 90.3918 21.4336 86.6001 21.4336C84.7467 21.4336 83.8117 20.9108 82.7 19.9167V25.7784H77.5933V6.74693H82.7163V7.88459C83.828 6.88779 84.7467 6.32166 86.6001 6.32166C90.3918 6.32166 93.5826 9.38792 93.5826 13.8763ZM88.9378 13.8763C88.9378 11.7987 87.5542 10.3549 85.66 10.3549C83.8987 10.3549 82.3251 11.7879 82.3251 13.8763C82.3251 15.9647 83.8987 17.3976 85.66 17.3976C87.5542 17.3868 88.9378 15.9837 88.9378 13.8763Z" fill="white"/>
</g>
<defs>
<clipPath id="clip0">
<rect width="154.7" height="26" fill="white"/>
</clipPath>
</defs>
</svg>

<svg xmlns="http://www.w3.org/2000/svg" fill="none" viewBox="0 0 155 26"><g clip-path="url(#a)"><path fill="#4490CD" d="M95.3.3h5.5v4.6h-5.5V.3zm7.6 15.9h5.4v4.7h-5.4v-4.7z"/><path fill="#07122b" d="M42 12.7v8.1h-5.1v-1a5 5 0 0 1-3.6 1.4c-3 0-5.4-1.9-5.4-4.5 0-2.7 2.6-4.6 6-4.6 1 0 2 .3 3 .7v-.1c0-1.2-1-2-2.9-2a7 7 0 0 0-3.4.9L29 8.3c2-1 4-1.6 6.4-1.6 3.6 0 6.5 2.2 6.5 6zm-5.1 3a5 5 0 0 0-2.3-.4c-1 0-1.7.5-1.7 1.3 0 .7.7 1.2 1.6 1.2 2.3 0 2.4-2 2.4-2zM58.6 12v8.8h-5v-7.6c0-1.3-1-2.3-2.2-2.3-1.2 0-2 1-2 2.2v7.7H44V6.7h5.3v1.7a5 5 0 0 1 4-1.7 5 5 0 0 1 5.2 5.3zm1.8 12.6l1-3.3a6 6 0 0 0 2 .7 2 2 0 0 0 1.6-.7l.1-.2-5.7-14.3h5.4l2.9 8.7 2.7-8.7h5.3L70.4 21c-1.2 3-3.2 4.8-5.6 4.8-1.6 0-3-.4-4.4-1.2zm35-17.9h5.3v14.1h-5.3v-14zm17.1 14.1l-9.8-14h5.6l2 2.9 2-3h5.5l-4.8 6.9 5 7.2h-5.5zm16.2-4.6l2.8 2.8a8.5 8.5 0 0 1-5.7 2.2c-4.4 0-7.6-3-7.6-7.3 0-4.2 3.2-7.1 7.4-7.1 4.5 0 7.2 3.1 7.2 8.4H123c.4 1.3 1.3 2.2 2.6 2.2 1.1 0 2.2-.5 3-1.2zm-5.6-3.7h4.8c-.4-1.1-1.2-1.9-2.3-1.9-1.2 0-2 .8-2.5 1.9zM134.8.2h5.3v20.6h-5.3V.2zm7.3 18.8l2-3c1.3 1 3.3 1.6 4.7 1.6 1 0 1.3-.2 1.3-.7 0-.4-.8-.7-2-1-2.5-.5-5.3-1.1-5.3-4.4 0-2.6 2.1-4.7 5.7-4.7 2 0 4 .7 5.8 1.8l-1.8 3.1a8.2 8.2 0 0 0-4-1.4c-.7 0-1.2.3-1.2.7 0 .5.6.6 2 .9 2.5.5 5.4 1.4 5.4 4.6 0 2.9-2.3 4.7-6 4.7a11 11 0 0 1-6.6-2.1zM18.8 6.8c-5 0-5.3 2.3-5.3 2.3s-1-2.3-5-2.3c-2.7 0-3.2 1-3.2 1V6.7H0v14.1h5.3V13c0-1.5 1.4-2.3 2.6-2.3 1.4 0 2.7.9 2.7 2.2v8h5l.1-7.6a2.6 2.6 0 0 1 2.6-2.7 2.7 2.7 0 0 1 2.8 2.7v7.6h5v-8.7c0-3.1-3-5.3-7.3-5.3zm74.8 7.1c0 4.5-3.2 7.5-7 7.5a5 5 0 0 1-3.9-1.5v5.9h-5.1v-19h5.1v1a5 5 0 0 1 3.9-1.5c3.8 0 7 3 7 7.6zm-4.7 0c0-2.1-1.3-3.5-3.2-3.5a3.4 3.4 0 0 0-3.4 3.5c0 2 1.6 3.5 3.4 3.5 1.9 0 3.2-1.4 3.2-3.5z"/></g><defs><clipPath id="a"><path fill="#fff" d="M0 0h154.7v26H0z"/></clipPath></defs></svg>
